build/Karasa-Jaga/scalable/devices/drive-harddisk-usb-symbolic.svg

<svg height="16" width="16" xmlns="http://www.w3.org/2000/svg"><g fill="#bebebe"><path d="m2.84375 0c-.8215224-.00137341-1.162371 1.045648-1.15625 1.3125l-.6875 11c.1531649-.670693.6175502-1.157078 1.1875-1.15625h11.65625c.521856.000758.967768.416136 1.15625 1l-.59375-10.75c.02502-.3780782-.39306-1.37330616-1.40625-1.375zm-.0292969.63867188h10.4199219c.2535.0240122.623621.42161652.558594 1.11718752l.095703 8.7480466h-11.7773439l.2324219-8.7597654c.0530224-.7154511.2268404-.97988778.4707031-1.10546872zm5.5917969.43164062-1.3125 2.0410156h.875v3.0332031l-1.3125-.7871093v-.2050781h.4375v-1.3398438h-1.71875v1.3398438h.4375v.3496093.1757813l.15625.0585937 2 1.2519531v.3222657.203125.4082031c-.50637.1378679-.875.5193128-.875.9628906 0 .5603065.59714 1.0195313 1.3125 1.0195313s1.28125-.4592248 1.28125-1.0195313c0-.4435778-.33738-.8250236-.84375-.9628906v-.0585938-.1738281-.0292969l1.96875-1.2246093.1875-.0878907v-.1757812-.4648438c.25215-.1180984.40625-.3078384.40625-.5546874 0-.3735325-.36685-.6699219-.84375-.6699219s-.875.2963894-.875.6699219c0 .2468489.18535.4365889.4375.5546874v.3203126l-1.28125.7871093v-3.703125h.84375zm-3.90625 7.7265625c-.40819 0-.71875.2330268-.71875.5527344 0 .3197075.31056.5839844.71875.5839844.40818-.0000001.75-.2642769.75-.5839844 0-.3197076-.34182-.5527344-.75-.5527344z"/><path d="m2.5659425 11.779661c-.8098185-.0013-1.4376715.692922-1.4376715 1.525693v1.114928c0 .832771.627853 1.524437 1.4376715 1.525693l10.9247885.01695c.809819.0013 1.437672-.692922 1.437672-1.525693v-1.114928c0-.832771-.627853-1.524436-1.437672-1.525693zm.011985 1.650517 2.279597.0035 1.2492121 1.31947.069501-1.317424 7.3264787.01137c.05801.00009.146701.03087.146701.234722v1.114928c0 .203852-.08869.234812-.146701.234722l-10.9247888-.016916c-.058017-.00009-.1467012-.03087-.1467012-.234722v-1.114928c0-.203854.088685-.234812.1467012-.234722z"/></g></svg>

<?xml version="1.0" encoding="UTF-8" standalone="no"?>
<!-- Created with Inkscape (http://www.inkscape.org/) -->

<svg
   xmlns:osb="http://www.openswatchbook.org/uri/2009/osb"
   xmlns:dc="http://purl.org/dc/elements/1.1/"
   xmlns:cc="http://creativecommons.org/ns#"
   xmlns:rdf="http://www.w3.org/1999/02/22-rdf-syntax-ns#"
   xmlns:svg="http://www.w3.org/2000/svg"
   xmlns="http://www.w3.org/2000/svg"
   xmlns:xlink="http://www.w3.org/1999/xlink"
   xmlns:sodipodi="http://sodipodi.sourceforge.net/DTD/sodipodi-0.dtd"
   xmlns:inkscape="http://www.inkscape.org/namespaces/inkscape"
   version="1.1"
   width="16"
   height="16"
   id="svg3808"
   inkscape:version="0.92.2 (unknown)"
   sodipodi:docname="drive-harddisk-usb-symbolic.svg">
  <sodipodi:namedview
     pagecolor="#ffffff"
     bordercolor="#666666"
     borderopacity="1"
     objecttolerance="10"
     gridtolerance="10"
     guidetolerance="10"
     inkscape:pageopacity="0"
     inkscape:pageshadow="2"
     inkscape:window-width="1366"
     inkscape:window-height="697"
     id="namedview7"
     showgrid="false"
     showguides="true"
     inkscape:guide-bbox="true"
     inkscape:zoom="20.378749"
     inkscape:cx="12.111152"
     inkscape:cy="7.7730577"
     inkscape:window-x="0"
     inkscape:window-y="0"
     inkscape:window-maximized="1"
     inkscape:current-layer="svg3808">
    <inkscape:grid
       type="xygrid"
       id="grid3053" />
  </sodipodi:namedview>
  <defs
     id="defs3810">
    <linearGradient
       inkscape:collect="always"
       xlink:href="#XMLID_19_"
       id="linearGradient12942"
       gradientUnits="userSpaceOnUse"
       gradientTransform="matrix(0,-0.44649484,0.43865775,0,44.314056,98.880451)"
       x1="180.37399"
       y1="-157.96339"
       x2="188.83299"
       y2="-157.96339" />
    <linearGradient
       id="XMLID_19_"
       gradientUnits="userSpaceOnUse"
       x1="180.37399"
       y1="-157.96339"
       x2="188.83299"
       y2="-157.96339"
       gradientTransform="matrix(0,-1.8884098,1.8552635,0,317.52681,460.62003)">
      <stop
         offset="0"
         style="stop-color:#DDDDDD"
         id="stop126" />
      <stop
         offset="0.2738"
         style="stop-color:#BBBBBB"
         id="stop128" />
      <stop
         offset="0.5617"
         style="stop-color:#9F9F9F"
         id="stop130" />
      <stop
         offset="0.8136"
         style="stop-color:#8E8E8E"
         id="stop132" />
      <stop
         offset="1"
         style="stop-color:#888888"
         id="stop134" />
    </linearGradient>
    <linearGradient
       inkscape:collect="always"
       xlink:href="#linearGradient6253-0"
       id="linearGradient12938"
       gradientUnits="userSpaceOnUse"
       gradientTransform="matrix(0.29171261,0,0,0.49647278,-6.3928271,69.131208)"
       x1="-35.539001"
       y1="-144.21001"
       x2="-35.539001"
       y2="-108.32" />
    <linearGradient
       id="linearGradient6253-0">
      <stop
         style="stop-color:#ffffff;stop-opacity:1"
         offset="0"
         id="stop6255-0" />
      <stop
         id="stop6257-8"
         offset="0.64336616"
         style="stop-color:#efefef;stop-opacity:1" />
      <stop
         style="stop-color:#e5e5e5;stop-opacity:1"
         offset="1"
         id="stop6259-5" />
    </linearGradient>
    <linearGradient
       inkscape:collect="always"
       xlink:href="#linearGradient3214"
       id="linearGradient12940"
       gradientUnits="userSpaceOnUse"
       gradientTransform="matrix(0.79749691,0,0,1.368051,-28.610824,-12.086273)"
       x1="7.8513999"
       y1="19.968"
       x2="7.8513999"
       y2="7.0348001" />
    <linearGradient
       x1="7.8513999"
       y1="19.968"
       gradientTransform="matrix(0.64516,0,0,0.97976,0.25806,-6.7257)"
       x2="7.8513999"
       gradientUnits="userSpaceOnUse"
       y2="7.0348001"
       id="linearGradient3214">
      <stop
         offset="0"
         style="stop-color:#848484;stop-opacity:1;"
         id="stop3486" />
      <stop
         offset="1"
         style="stop-color:#bebebe;stop-opacity:1;"
         id="stop3488" />
    </linearGradient>
    <linearGradient
       inkscape:collect="always"
       xlink:href="#linearGradient3217"
       id="linearGradient12936"
       gradientUnits="userSpaceOnUse"
       gradientTransform="matrix(0.86516705,0,0,1.4752569,9.9026508,-95.765287)"
       x1="46.426998"
       y1="101.88"
       x2="46.426998"
       y2="85.788002" />
    <linearGradient
       x1="46.426998"
       y1="101.88"
       gradientTransform="matrix(0.12584,0,0,0.1986,0.13145,-5.1684)"
       x2="46.426998"
       gradientUnits="userSpaceOnUse"
       y2="85.788002"
       id="linearGradient3217">
      <stop
         offset="0"
         style="stop-color:#aaa"
         id="stop2223" />
      <stop
         offset="1"
         style="stop-color:#646464"
         id="stop2219" />
    </linearGradient>
    <linearGradient
       y2="85.788002"
       x2="46.426998"
       y1="101.88"
       x1="46.426998"
       gradientTransform="matrix(0.15555368,0,0,0.26524546,-28.767329,-8.8387032)"
       gradientUnits="userSpaceOnUse"
       id="linearGradient13048"
       xlink:href="#linearGradient3217"
       inkscape:collect="always" />
    <linearGradient
       x1="8.2128801"
       y1="0.95885509"
       x2="8.2128801"
       y2="14.985587"
       id="linearGradient3899"
       xlink:href="#linearGradient3798-3"
       gradientUnits="userSpaceOnUse"
       gradientTransform="matrix(1,0,0,-1,0,16)" />
    <linearGradient
       id="linearGradient3798-3">
      <stop
         id="stop3800-9"
         style="stop-color:#bebebe;stop-opacity:0.69800001"
         offset="0" />
      <stop
         id="stop3802-0"
         style="stop-color:#bebebe;stop-opacity:1"
         offset="1" />
    </linearGradient>
    <radialGradient
       cx="8"
       cy="13.70627"
       r="5.4887881"
       fx="8"
       fy="13.70627"
       id="radialGradient3922"
       xlink:href="#linearGradient3798-3"
       gradientUnits="userSpaceOnUse"
       gradientTransform="matrix(2.0028749,0,0,2.103321,-27.472015,-17.454038)" />
    <linearGradient
       id="linearGradient5606"
       osb:paint="solid">
      <stop
         id="stop5608"
         offset="0"
         style="stop-color:#000000;stop-opacity:1;" />
    </linearGradient>
    <linearGradient
       inkscape:collect="always"
       gradientTransform="matrix(0.08112299,0,0,0.07855526,540.8143,254.8467)"
       gradientUnits="userSpaceOnUse"
       xlink:href="#linearGradient3785"
       id="linearGradient3189"
       x1="365.51193"
       x2="365.97757"
       y1="408.39655"
       y2="520.1709" />
    <linearGradient
       id="linearGradient3785">
      <stop
         id="stop3787"
         offset="0"
         style="stop-color:#384880;stop-opacity:1;" />
      <stop
         id="stop3789"
         offset="1"
         style="stop-color:#000000;stop-opacity:1;" />
    </linearGradient>
    <linearGradient
       x1="8.2128801"
       y1="0.95885509"
       x2="8.2128801"
       y2="14.985587"
       id="linearGradient3899-9"
       xlink:href="#linearGradient3798-3-2"
       gradientUnits="userSpaceOnUse"
       gradientTransform="matrix(1,0,0,-1,0,16)" />
    <linearGradient
       id="linearGradient3798-3-2">
      <stop
         id="stop3800-9-5"
         style="stop-color:#bebebe;stop-opacity:0.69800001"
         offset="0" />
      <stop
         id="stop3802-0-1"
         style="stop-color:#bebebe;stop-opacity:1"
         offset="1" />
    </linearGradient>
    <radialGradient
       cx="8"
       cy="13.70627"
       r="5.4887881"
       fx="8"
       fy="13.70627"
       id="radialGradient3922-0"
       xlink:href="#linearGradient3798-3-2"
       gradientUnits="userSpaceOnUse"
       gradientTransform="matrix(2.0028749,0,0,2.103321,-27.472015,-17.454038)" />
    <radialGradient
       gradientTransform="matrix(2.0028749,0,0,2.103321,-27.472015,-17.454038)"
       gradientUnits="userSpaceOnUse"
       xlink:href="#linearGradient3798-3"
       id="radialGradient3922-2"
       fy="13.70627"
       fx="8"
       r="5.4887881"
       cy="13.70627"
       cx="8" />
    <radialGradient
       gradientTransform="matrix(2.0028749,0,0,2.103321,-27.472015,-17.454038)"
       gradientUnits="userSpaceOnUse"
       xlink:href="#linearGradient3798-3"
       id="radialGradient3922-0-2"
       fy="13.70627"
       fx="8"
       r="5.4887881"
       cy="13.70627"
       cx="8" />
  </defs>
  <metadata
     id="metadata3813">
    <rdf:RDF>
      <cc:Work
         rdf:about="">
        <dc:format>image/svg+xml</dc:format>
        <dc:type
           rdf:resource="http://purl.org/dc/dcmitype/StillImage" />
        <dc:title></dc:title>
      </cc:Work>
    </rdf:RDF>
  </metadata>
  <path
     style="color:#bebebe;display:inline;overflow:visible;visibility:visible;fill:#bebebe;fill-opacity:1;fill-rule:nonzero;stroke:none;stroke-width:1;marker:none;enable-background:accumulate"
     d="M 2.84375 0 C 2.0222276 -0.00137341 1.681379 1.045648 1.6875 1.3125 L 1 12.3125 C 1.1531649 11.641807 1.6175502 11.155422 2.1875 11.15625 L 13.84375 11.15625 C 14.365606 11.157008 14.811518 11.572386 15 12.15625 L 14.40625 1.40625 C 14.43127 1.0281718 14.01319 0.03294384 13 0.03125 L 2.84375 0 z M 2.8144531 0.63867188 L 13.234375 0.63867188 C 13.487875 0.66268408 13.857996 1.0602884 13.792969 1.7558594 L 13.888672 10.503906 L 2.1113281 10.503906 L 2.34375 1.7441406 C 2.3967724 1.0286895 2.5705904 0.76425282 2.8144531 0.63867188 z M 8.40625 1.0703125 L 7.09375 3.1113281 L 7.96875 3.1113281 L 7.96875 6.1445312 L 6.65625 5.3574219 L 6.65625 5.1523438 L 7.09375 5.1523438 L 7.09375 3.8125 L 5.375 3.8125 L 5.375 5.1523438 L 5.8125 5.1523438 L 5.8125 5.5019531 L 5.8125 5.6777344 L 5.96875 5.7363281 L 7.96875 6.9882812 L 7.96875 7.3105469 L 7.96875 7.5136719 L 7.96875 7.921875 C 7.46238 8.0597429 7.09375 8.4411878 7.09375 8.8847656 C 7.09375 9.4450721 7.69089 9.9042969 8.40625 9.9042969 C 9.12161 9.9042969 9.6875 9.4450721 9.6875 8.8847656 C 9.6875 8.4411878 9.35012 8.059742 8.84375 7.921875 L 8.84375 7.8632812 L 8.84375 7.6894531 L 8.84375 7.6601562 L 10.8125 6.4355469 L 11 6.3476562 L 11 6.171875 L 11 5.7070312 C 11.25215 5.5889328 11.40625 5.3991928 11.40625 5.1523438 C 11.40625 4.7788113 11.0394 4.4824219 10.5625 4.4824219 C 10.0856 4.4824219 9.6875 4.7788113 9.6875 5.1523438 C 9.6875 5.3991927 9.87285 5.5889327 10.125 5.7070312 L 10.125 6.0273438 L 8.84375 6.8144531 L 8.84375 3.1113281 L 9.6875 3.1113281 L 8.40625 1.0703125 z M 4.5 8.796875 C 4.09181 8.796875 3.78125 9.0299018 3.78125 9.3496094 C 3.78125 9.6693169 4.09181 9.9335938 4.5 9.9335938 C 4.90818 9.9335937 5.25 9.6693169 5.25 9.3496094 C 5.25 9.0299018 4.90818 8.796875 4.5 8.796875 z "
     id="path59" />
  <path
     style="fill:#bebebe;fill-opacity:1;stroke:none"
     d="M 2.5659425,11.779661 C 1.756124,11.778361 1.128271,12.472583 1.128271,13.305354 l 0,1.114928 c 0,0.832771 0.627853,1.524437 1.4376715,1.525693 l 10.9247885,0.01695 c 0.809819,0.0013 1.437672,-0.692922 1.437672,-1.525693 l 0,-1.114928 c 0,-0.832771 -0.627853,-1.524436 -1.437672,-1.525693 z m 0.011985,1.650517 2.279597,0.0035 1.2492121,1.31947 0.069501,-1.317424 7.3264787,0.01137 c 0.05801,9e-5 0.146701,0.03087 0.146701,0.234722 l 0,1.114928 c 0,0.203852 -0.08869,0.234812 -0.146701,0.234722 L 2.5779275,15.01455 c -0.058017,-9e-5 -0.1467012,-0.03087 -0.1467012,-0.234722 l 0,-1.114928 c 0,-0.203854 0.088685,-0.234812 0.1467012,-0.234722 z"
     id="path3009"
     inkscape:connector-curvature="0"
     sodipodi:nodetypes="sssssssssscccssssssss" />
  <g
     id="g3077"
     transform="translate(-123.60224,-162.61889)" />
  <g
     id="g3077-0"
     transform="translate(-140.51144,126.87462)" />
  <g
     id="layer9"
     inkscape:label="status"
     style="display:inline"
     transform="translate(-429.45429,190.2086)" />
  <g
     id="layer1"
     inkscape:label="places"
     style="display:inline"
     transform="translate(-188.45409,-426.7914)" />
  <g
     id="layer14"
     inkscape:label="mimetypes"
     style="display:inline"
     transform="translate(-429.45429,190.2086)" />
  <g
     id="layer15"
     inkscape:label="emblems"
     style="display:inline"
     transform="translate(-429.45429,190.2086)" />
  <g
     id="g71291"
     inkscape:label="emotes"
     style="display:inline"
     transform="translate(-429.45429,190.2086)" />
  <g
     id="layer2"
     inkscape:label="categories"
     style="display:inline"
     transform="translate(-188.45409,-276.7914)" />
  <g
     id="g6058"
     inkscape:label="apps"
     style="display:inline"
     transform="translate(-188.45409,-276.7914)" />
  <g
     id="layer12"
     inkscape:label="actions"
     style="display:inline"
     transform="translate(-429.45429,190.2086)" />
  <g
     id="g3077-3"
     transform="translate(-106.77245,-160.93048)" />
  <g
     id="g3077-0-7"
     transform="translate(-123.68165,128.56303)" />
  <g
     id="layer9-5"
     inkscape:label="status"
     style="display:inline"
     transform="translate(-412.6245,191.89701)" />
  <g
     id="layer1-9"
     inkscape:label="places"
     style="display:inline"
     transform="translate(-171.6243,-425.10299)" />
  <g
     id="layer14-2"
     inkscape:label="mimetypes"
     style="display:inline"
     transform="translate(-412.6245,191.89701)" />
  <g
     id="layer15-2"
     inkscape:label="emblems"
     style="display:inline"
     transform="translate(-412.6245,191.89701)" />
  <g
     id="g71291-8"
     inkscape:label="emotes"
     style="display:inline"
     transform="translate(-412.6245,191.89701)" />
  <g
     id="layer2-9"
     inkscape:label="categories"
     style="display:inline"
     transform="translate(-171.6243,-275.10299)" />
  <g
     id="g6058-7"
     inkscape:label="apps"
     style="display:inline"
     transform="translate(-171.6243,-275.10299)" />
  <g
     id="layer12-3"
     inkscape:label="actions"
     style="display:inline"
     transform="translate(-412.6245,191.89701)" />
</svg>
